Newaita/actions/scalable/mail-reply-sender.svg

<?xml version="1.0" encoding="UTF-8"?>
<svg xmlns="http://www.w3.org/2000/svg" xmlns:xlink="http://www.w3.org/1999/xlink" width="512pt" height="512pt" viewBox="0 0 512 512" version="1.1">
<g id="surface1">
<path style=" stroke:none;fill-rule:nonzero;fill:rgb(25.882354%,25.882354%,25.882354%);fill-opacity:1;" d="M 444.542969 67.507812 C 467.996094 67.507812 486.878906 86.386719 486.878906 109.84375 L 486.878906 416.789062 C 486.878906 440.246094 467.996094 459.125 444.542969 459.125 L 201.101562 459.125 L 201.101562 427.375 L 433.957031 427.375 C 445.6875 427.375 455.125 417.933594 455.125 406.207031 L 455.125 123.789062 L 266.210938 292.816406 C 259.273438 299.023438 248.777344 299.023438 241.835938 292.816406 L 52.921875 123.789062 L 52.921875 279.191406 L 21.167969 279.191406 L 21.167969 109.84375 C 21.167969 86.386719 40.050781 67.507812 63.507812 67.507812 Z M 427.714844 99.257812 L 80.335938 99.257812 L 254.023438 254.664062 Z M 427.714844 99.257812 "/>
<path style=" stroke:none;fill-rule:nonzero;fill:rgb(100%,65.490198%,14.901961%);fill-opacity:1;" d="M 166.144531 301.285156 C 170.226562 301.121094 174.195312 302.625 177.140625 305.453125 C 180.085938 308.28125 181.753906 312.1875 181.753906 316.273438 L 181.753906 443.285156 C 181.753906 448.6875 178.84375 453.675781 174.140625 456.339844 C 169.4375 459.003906 163.667969 458.929688 159.03125 456.148438 L 53.191406 392.644531 C 48.671875 389.929688 45.90625 385.046875 45.90625 379.78125 C 45.90625 374.511719 48.671875 369.628906 53.191406 366.914062 L 159.03125 303.410156 C 161.1875 302.117188 163.632812 301.386719 166.144531 301.285156 Z M 151.75 342.769531 L 90.0625 379.78125 L 151.75 416.789062 Z M 151.75 342.769531 "/>
</g>
</svg>

<svg xmlns="http://www.w3.org/2000/svg" width="512pt" height="512pt" viewBox="0 0 512 512"><path d="M444.543 67.508c23.453 0 42.336 18.879 42.336 42.336v306.945c0 23.457-18.883 42.336-42.336 42.336H201.102v-31.75h232.855a21.12 21.12 0 0 0 21.168-21.168V123.789L266.211 292.816c-6.938 6.207-17.434 6.207-24.375 0L52.922 123.79v155.402H21.168V109.844c0-23.457 18.883-42.336 42.34-42.336zm-16.828 31.75H80.335l173.688 155.406zm0 0" fill="#424242"/><path d="M166.145 301.285a15.001 15.001 0 0 1 15.609 14.988v127.012c0 5.402-2.91 10.39-7.613 13.055a14.997 14.997 0 0 1-15.11-.192l-105.84-63.503a15.01 15.01 0 0 1-7.285-12.864c0-5.27 2.766-10.152 7.285-12.867l105.84-63.504a15.01 15.01 0 0 1 7.114-2.125zM151.75 342.77L90.062 379.78l61.688 37.008zm0 0" fill="#ffa726"/></svg>
